X:18
T:Harry Lane Waltz
C:Andy Cutting
R:waltz
Z:Transcribed by Lionel Gueganton
L:1/8
M:3/4
K:G
|: "D"BG EB FG  | "Bb"A3A BA | "F"G2 F2 E2     | "A"^DE FA GF   |
   "D"BG EB FG  | "Bb"A3A BA | "F"GF E"Em"A FG |1 "D"EB, EF GA :|2 "D"E2 G3F |
   "D"E3F GB    | "Bb"e6     | "C"d3e dc       | "F"B4 B/B/B    |
   "F"Bd ^cd BG | "A"F6      | "A"FG/F/ EF GA  | F2 "F"G3F      |
   "D"E3F GB    | "Bb"e6     | "C"dg fe dc     | "F"B6          |
   "F"Bd ^cd BG | "A"F6      | "A"BB AB GF     | "D"EB, EF GA   |

